flaticon/transportation/airplane.svg

<svg xmlns="http://www.w3.org/2000/svg" width="32" height="32" viewBox="0 0 24 24">
    <path d="M 22.019531 7.457031 L 16.085938 7.457031 C 16.085938 7.328125 16.085938 7.195312 16.078125 7.066406 C 15.820312 3.53125 12.511719 3.53125 12.511719 3.53125 L 12.511719 1.277344 L 17.945312 1.277344 L 17.945312 0.253906 L 6.054688 0.253906 L 6.054688 1.277344 L 11.488281 1.277344 L 11.488281 3.53125 C 11.488281 3.53125 8.167969 3.53125 7.921875 7.066406 C 7.914062 7.195312 7.914062 7.328125 7.914062 7.457031 L 1.980469 7.457031 C 0.890625 7.457031 0 8.203125 0 9.121094 L 0 9.476562 C 0 10.226562 0.574219 10.871094 1.429688 11.078125 C 1.429688 11.078125 8.023438 12.667969 8.050781 12.675781 C 8.207031 14.578125 8.472656 16.339844 8.828125 17.832031 L 4.378906 19.296875 C 3.617188 19.550781 3.125 20.15625 3.125 20.847656 C 3.125 21.765625 4.015625 22.511719 5.109375 22.511719 L 11.253906 22.511719 C 11.332031 22.554688 11.410156 22.585938 11.488281 22.617188 L 11.488281 23.746094 L 12.511719 23.746094 L 12.511719 22.617188 C 12.589844 22.585938 12.667969 22.554688 12.746094 22.511719 L 18.890625 22.511719 C 19.984375 22.511719 20.875 21.765625 20.875 20.847656 C 20.875 20.15625 20.382812 19.550781 19.625 19.296875 L 15.171875 17.828125 C 15.53125 16.328125 15.796875 14.550781 15.953125 12.636719 L 22.558594 11.074219 C 23.421875 10.871094 24 10.226562 24 9.472656 L 24 9.121094 C 24 8.203125 23.109375 7.457031 22.019531 7.457031 Z M 22.980469 9.472656 C 22.980469 9.738281 22.710938 9.988281 22.324219 10.078125 L 14.992188 11.730469 C 14.839844 13.386719 14.742188 15.917969 13.902344 18.664062 L 19.304688 20.265625 C 19.632812 20.375 19.851562 20.609375 19.851562 20.847656 C 19.851562 21.195312 19.414062 21.492188 18.890625 21.492188 L 5.109375 21.492188 C 4.585938 21.492188 4.148438 21.195312 4.148438 20.847656 C 4.148438 20.609375 4.367188 20.375 4.699219 20.269531 L 10.097656 18.660156 C 9.402344 16.015625 9.078125 13.542969 9 11.699219 L 1.667969 10.082031 C 1.289062 9.992188 1.019531 9.742188 1.019531 9.476562 L 1.019531 9.121094 C 1.019531 8.773438 1.460938 8.480469 1.980469 8.480469 L 8.917969 8.480469 C 8.917969 8.480469 8.933594 7.386719 8.945312 7.097656 C 8.988281 5.671875 10.09375 4.554688 11.457031 4.554688 L 12.542969 4.554688 C 13.90625 4.554688 15.011719 5.671875 15.054688 7.097656 C 15.066406 7.386719 15.082031 8.480469 15.082031 8.480469 L 22.019531 8.480469 C 22.539062 8.480469 22.980469 8.773438 22.980469 9.121094 Z M 22.980469 9.472656"/>
    <path d="M 12 6.207031 C 10.675781 6.207031 9.636719 7.765625 9.636719 9.753906 C 9.636719 11.742188 10.675781 13.296875 12 13.296875 C 13.324219 13.296875 14.363281 11.742188 14.363281 9.753906 C 14.363281 7.765625 13.324219 6.207031 12 6.207031 Z M 12 12.277344 C 11.367188 12.277344 10.660156 11.242188 10.660156 9.753906 C 10.660156 8.265625 11.367188 7.230469 12 7.230469 C 12.632812 7.230469 13.339844 8.265625 13.339844 9.753906 C 13.339844 11.242188 12.632812 12.277344 12 12.277344 Z M 12 12.277344"/>
</svg>

<svg xmlns="http://www.w3.org/2000/svg" width="32" height="32" viewBox="0 0 24 24">
    <path d="M22.02 7.457h-5.934c0-.129 0-.262-.008-.39-.258-3.536-3.566-3.536-3.566-3.536V1.277h5.433V.254H6.055v1.023h5.433v2.254s-3.32 0-3.566 3.535c-.008.13-.008.262-.008.391H1.98C.89 7.457 0 8.203 0 9.121v.356c0 .75.574 1.394 1.43 1.601 0 0 6.593 1.59 6.62 1.598.157 1.902.423 3.664.778 5.156l-4.45 1.465c-.76.254-1.253.86-1.253 1.55 0 .919.89 1.665 1.984 1.665h6.145c.078.043.156.074.234.105v1.13h1.024v-1.13c.078-.031.156-.062.234-.105h6.145c1.093 0 1.984-.746 1.984-1.664 0-.692-.492-1.297-1.25-1.551l-4.453-1.469c.36-1.5.625-3.277.781-5.191l6.606-1.563c.863-.203 1.441-.847 1.441-1.601V9.12c0-.918-.89-1.664-1.98-1.664zm.96 2.016c0 .265-.27.515-.656.605l-7.332 1.652c-.152 1.657-.25 4.188-1.09 6.934l5.403 1.602c.328.109.547.343.547.582 0 .347-.438.644-.961.644H5.109c-.523 0-.96-.297-.96-.644 0-.239.218-.473.55-.578l5.399-1.61C9.402 16.016 9.078 13.543 9 11.7l-7.332-1.618c-.379-.09-.648-.34-.648-.605V9.12c0-.348.44-.64.96-.64h6.938s.016-1.094.027-1.383c.043-1.426 1.149-2.543 2.512-2.543h1.086c1.363 0 2.469 1.117 2.512 2.543.011.289.027 1.382.027 1.382h6.938c.52 0 .96.293.96.641zm0 0"/>
    <path d="M12 6.207c-1.324 0-2.363 1.559-2.363 3.547 0 1.988 1.039 3.543 2.363 3.543s2.363-1.555 2.363-3.543c0-1.988-1.039-3.547-2.363-3.547zm0 6.07c-.633 0-1.34-1.035-1.34-2.523 0-1.488.707-2.524 1.34-2.524.633 0 1.34 1.036 1.34 2.524s-.707 2.523-1.34 2.523zm0 0"/>
</svg>
